images/class_icons/bladeswarm.svg

<svg height="400" viewBox="0 0 400 400" width="400" xmlns="http://www.w3.org/2000/svg"><path d="m192.835 19.375-6.541 10-.022 79.614c-.013 46.223-.497 79.907-1.155 80.314-.623.385-10.117-8.723-21.098-20.239-44.202-46.358-68.968-76.614-85.949-105.001-8.789-14.694-9.445-13.995-10.265 10.937-1.273 38.762 6.383 51.317 71.487 117.228l39.917 40.412-22.206 22.232-22.206 22.232 1.376 5.111c2.75 10.21-1.996 21.544-15.05 35.949-8.59 9.479-8.48 9.058-3.595 13.738l3.778 3.62 12.785-12.444c7.031-6.844 21.643-21.158 32.472-31.808l19.687-19.366v28.348 28.347l-4.401.388c-8.041.709-5.243 2.877 4.203 3.258l9.176.369-.495 24.006c-.272 13.203-.746 24.77-1.052 25.704-.346 1.059 1.092 2.283 3.819 3.251 5.395 1.913 14.739-.231 13.819-3.172-.306-.978-.78-12.58-1.052-25.783l-.495-24.006 9.176-.369c9.577-.386 12.609-2.586 4.49-3.258l-4.688-.388v-28.346-28.347l18.438 18.113c10.14 9.962 24.752 24.276 32.47 31.809l14.033 13.696 3.78-3.621c4.83-4.628 4.868-4.424-2.259-12.294-14.12-15.592-19.163-27.08-16.396-37.354l1.387-5.151-22.222-22.248-22.222-22.247 38.714-39.117c65.911-66.597 72.268-76.623 72.357-114.117.068-28.6-1.303-30.817-9.823-15.888-15.103 26.462-41.117 58.367-86.252 105.786l-20.13 21.148-.845-5.523c-.465-3.038-.896-39.273-.96-80.523l-.114-75-6.541-10-6.54-10-.681 158.389c-.375 87.115-1.078 158.786-1.563 159.271-2.405 2.406-2.706-11.965-3.332-159.278l-.674-158.382zm-106.029 330.669c-19.165 18-20.048 19.352-15.759 24.146 4.552 5.088 8.996 6.327 11.1 3.095 1.042-1.6 9.282-10.053 18.311-18.783l16.417-15.873-4.941-5.065c-6.269-6.425-3.569-7.766-25.128 12.48m206.29-12.514-4.912 5.03 16.399 15.907c9.019 8.75 17.246 17.218 18.281 18.818 1.773 2.74 2.092 2.802 5.45 1.065 5.684-2.939 11.849-12.1 8.144-12.1-.666 0-9.177-7.594-18.912-16.875-20.335-19.386-18.13-18.318-24.45-11.845" fill-rule="evenodd"/></svg>

<svg id="svg" xmlns="http://www.w3.org/2000/svg" xmlns:xlink="http://www.w3.org/1999/xlink" width="400" height="400" viewBox="0, 0, 400,400"><g id="svgg"><path id="path0" d="M192.835 19.375 L 186.294 29.375 186.272 108.989 C 186.259 155.212,185.775 188.896,185.117 189.303 C 184.494 189.688,175.000 180.580,164.019 169.064 C 119.817 122.706,95.051 92.450,78.070 64.063 C 69.281 49.369,68.625 50.068,67.805 75.000 C 66.532 113.762,74.188 126.317,139.292 192.228 L 179.209 232.640 157.003 254.872 L 134.797 277.104 136.173 282.215 C 138.923 292.425,134.177 303.759,121.123 318.164 C 112.533 327.643,112.643 327.222,117.528 331.902 L 121.306 335.522 134.091 323.078 C 141.122 316.234,155.734 301.920,166.563 291.270 L 186.250 271.904 186.250 300.252 L 186.250 328.599 181.849 328.987 C 173.808 329.696,176.606 331.864,186.052 332.245 L 195.228 332.614 194.733 356.620 C 194.461 369.823,193.987 381.390,193.681 382.324 C 193.335 383.383,194.773 384.607,197.500 385.575 C 202.895 387.488,212.239 385.344,211.319 382.403 C 211.013 381.425,210.539 369.823,210.267 356.620 L 209.772 332.614 218.948 332.245 C 228.525 331.859,231.557 329.659,223.438 328.987 L 218.750 328.599 218.750 300.253 L 218.750 271.906 237.188 290.019 C 247.328 299.981,261.940 314.295,269.658 321.828 L 283.691 335.524 287.471 331.903 C 292.301 327.275,292.339 327.479,285.212 319.609 C 271.092 304.017,266.049 292.529,268.816 282.255 L 270.203 277.104 247.981 254.856 L 225.759 232.609 264.473 193.492 C 330.384 126.895,336.741 116.869,336.830 79.375 C 336.898 50.775,335.527 48.558,327.007 63.487 C 311.904 89.949,285.890 121.854,240.755 169.273 L 220.625 190.421 219.780 184.898 C 219.315 181.860,218.884 145.625,218.820 104.375 L 218.706 29.375 212.165 19.375 L 205.625 9.375 204.944 167.764 C 204.569 254.879,203.866 326.550,203.381 327.035 C 200.976 329.441,200.675 315.070,200.049 167.757 L 199.375 9.375 192.835 19.375 M86.806 350.044 C 67.641 368.044,66.758 369.396,71.047 374.190 C 75.599 379.278,80.043 380.517,82.147 377.285 C 83.189 375.685,91.429 367.232,100.458 358.502 L 116.875 342.629 111.934 337.564 C 105.665 331.139,108.365 329.798,86.806 350.044 M293.096 337.530 L 288.184 342.560 304.583 358.467 C 313.602 367.217,321.829 375.685,322.864 377.285 C 324.637 380.025,324.956 380.087,328.314 378.350 C 333.998 375.411,340.163 366.250,336.458 366.250 C 335.792 366.250,327.281 358.656,317.546 349.375 C 297.211 329.989,299.416 331.057,293.096 337.530 " stroke="none" fill="#000000" fill-rule="evenodd"></path></g></svg>
